svgs/sharp-regular/beer-mug-empty.svg

<svg xmlns="http://www.w3.org/2000/svg" viewBox="0 0 512 512"><!--! Font Awesome Pro 6.4.2 by @fontawesome - https://fontawesome.com License - https://fontawesome.com/license (Commercial License) Copyright 2023 Fonticons, Inc. --><path d="M336 80H80V432H336V368.6c0-.4 0-.7 0-1.1V80zm48 303.7V432v48H336 80 32V432 80 32H80 336h48V80 96H488h24v24V312v15.7L497.6 334 384 383.7zM384 144V331.3l80-35V144H384zM160 128v16V368v16H128V368 144 128h32zm64 0v16V368v16H192V368 144 128h32zm64 0v16V368v16H256V368 144 128h32z"/></svg>

<svg xmlns="http://www.w3.org/2000/svg" viewBox="0 0 512 512"><!--! Font Awesome Pro 6.6.0 by @fontawesome - https://fontawesome.com License - https://fontawesome.com/license (Commercial License) Copyright 2024 Fonticons, Inc. --><path d="M336 80L80 80l0 352 256 0 0-63.4c0-.4 0-.7 0-1.1L336 80zm48 303.7l0 48.3 0 48-48 0L80 480l-48 0 0-48L32 80l0-48 48 0 256 0 48 0 0 48 0 16 104 0 24 0 0 24 0 192 0 15.7L497.6 334 384 383.7zM384 144l0 187.3 80-35L464 144l-80 0zM160 128l0 16 0 224 0 16-32 0 0-16 0-224 0-16 32 0zm64 0l0 16 0 224 0 16-32 0 0-16 0-224 0-16 32 0zm64 0l0 16 0 224 0 16-32 0 0-16 0-224 0-16 32 0z"/></svg>
